X:1
T:Title
%%score ( 1 2 ) { 3 | ( 4 5 ) }
L:1/8
Q:1/4=113
M:4/4
K:C
V:1 treble nm="Grand Piano, Unnamed-000"
V:2 treble 
V:3 bass nm="Choir Pad, Monkland, 77.77"
V:4 bass 
V:5 bass 
V:1
 C2 [CE]2 [DG]2 [CE]2 | C-[CG]AB [Ec]4 | [Ge]2 [Ge]2 [Gd]2 [Gc]2 | [GB]2 [^FA]2 G4 | %4
w: By~John~Antes,~1790,~arr.~by~John~B.~Wilkes,~1861 * * *||||
 [Gd]2 dc [DB]2 G2 | [Gc]2 [Ge]2 [Gd]4 | [Ge]2 dc [GB]2 [Gc]2 | [Gc]2 [DB]2 [Ec]4- | [Ec]4 z4 |] %9
w: |||||
V:2
 x8 | .F2 F2 z4 | x8 | x8 | z2 D2 z4 | x8 | z2 G2 z4 | x8 | x8 |] %9
V:3
 E,2 A,2 B,2 G,2 | A,2 F,2 G,4 | C2 C2 B,2 C2 | .D4[K:bass] B,4 | B,2 A,2 G,2 B,2 | C2 C2 B,4 | %6
 C2 B,C D2[K:bass] C2 | D2 G,2 G,4- | G,4 z4 |] %9
V:4
 C,2 A,,2 G,,2 C,2 | F,2 D,2 C,4 | C,D,E,F, G,2 E,2 | D,2 z C G,4 | G,2 ^F,2 z2 G,=F, | %5
 E,2 C,2 G,4 | C,2 D,E, F,2 E,2 | G,2 G,,2 C,4- | C,4 z4 |] %9
V:5
 x8 | x8 | x8 | z2 D,2 z4 | x8 | x8 | x8 | x8 | x8 |] %9

